src/Pure/16/symbolic/actions/document-export-symbolic.svg

<?xml version="1.0" encoding="UTF-8" standalone="no"?>
<svg
   version="1.1"
   viewBox="0 0 16 16"
   id="svg2"
   sodipodi:docname="document-export-symbolic.svg"
   inkscape:version="1.4.2 (ebf0e940d0, 2025-05-08)"
   xmlns:inkscape="http://www.inkscape.org/namespaces/inkscape"
   xmlns:sodipodi="http://sodipodi.sourceforge.net/DTD/sodipodi-0.dtd"
   xmlns="http://www.w3.org/2000/svg"
   xmlns:svg="http://www.w3.org/2000/svg">
  <sodipodi:namedview
     id="namedview2"
     pagecolor="#ffffff"
     bordercolor="#000000"
     borderopacity="0.25"
     inkscape:showpageshadow="2"
     inkscape:pageopacity="0.0"
     inkscape:pagecheckerboard="0"
     inkscape:deskcolor="#d1d1d1"
     inkscape:zoom="35.134368"
     inkscape:cx="6.1335954"
     inkscape:cy="8.723652"
     inkscape:window-width="1920"
     inkscape:window-height="1010"
     inkscape:window-x="0"
     inkscape:window-y="0"
     inkscape:window-maximized="1"
     inkscape:current-layer="svg2" />
  <defs
    id="defs1">
    <style
      id="current-color-scheme"
      type="text/css">
      .ColorScheme-Text { color:#363636; }
    </style>
  </defs>
  <path
     id="path1"
     style="fill:currentColor;fill-opacity:1"
     class="ColorScheme-Text"
     d="M 4.5 7 C 2.0147 7 0 9.0147 0 11.5 C 0 13.9853 2.0147 16 4.5 16 C 6.9853 16 9 13.9853 9 11.5 C 9 9.0147 6.9853 7 4.5 7 z M 3.9140625 9.5839844 C 4.0418725 9.5839844 4.1696441 9.6344879 4.2675781 9.7324219 C 4.4634481 9.9282919 4.4634481 10.243583 4.2675781 10.439453 L 3.7070312 11 L 6.5 11 C 6.777 11 7 11.223 7 11.5 C 7 11.777 6.777 12 6.5 12 L 3.7070312 12 L 4.2675781 12.560547 C 4.4634481 12.756417 4.4634481 13.071708 4.2675781 13.267578 C 4.0717081 13.463448 3.7564169 13.463448 3.5605469 13.267578 L 2.1816406 11.886719 C 2.1565496 11.866029 2.1338923 11.841566 2.1132812 11.816406 C 2.1086593 11.810736 2.1039494 11.804628 2.0996094 11.798828 C 2.0937504 11.790978 2.0874312 11.783591 2.0820312 11.775391 C 2.0741442 11.763471 2.0673069 11.750681 2.0605469 11.738281 L 2.0605469 11.736328 L 2.0585938 11.736328 L 2.0566406 11.734375 L 2.0566406 11.732422 C 2.0540406 11.727482 2.0532112 11.721797 2.0507812 11.716797 C 2.0495013 11.714197 2.048105 11.711684 2.046875 11.708984 C 2.043575 11.701814 2.0400694 11.6949 2.0371094 11.6875 C 2.0252324 11.65804 2.0158956 11.627673 2.0097656 11.595703 C 2.0069456 11.581193 2.0034731 11.565451 2.0019531 11.550781 L 2.0019531 11.546875 C 2.000426 11.530965 2 11.51598 2 11.5 C 2 11.484017 2.0005082 11.4685 2.0019531 11.453125 L 2.0019531 11.449219 C 2.0034631 11.434269 2.0069756 11.418817 2.0097656 11.404297 C 2.0158996 11.372327 2.0252324 11.34196 2.0371094 11.3125 C 2.0400794 11.30515 2.043575 11.298216 2.046875 11.291016 C 2.050445 11.283256 2.0527006 11.275078 2.0566406 11.267578 L 2.0566406 11.265625 L 2.0585938 11.265625 L 2.0605469 11.263672 L 2.0605469 11.261719 C 2.0673699 11.249129 2.0741913 11.236509 2.0820312 11.224609 L 2.0839844 11.222656 L 2.0859375 11.222656 L 2.0859375 11.220703 L 2.0859375 11.21875 L 2.0878906 11.21875 L 2.0878906 11.216797 C 2.0905606 11.212877 2.0929231 11.208878 2.0957031 11.205078 C 2.1007331 11.198188 2.1078512 11.192247 2.1132812 11.185547 L 2.1132812 11.181641 C 2.1234543 11.169301 2.1351874 11.157784 2.1464844 11.146484 C 2.1577814 11.135194 2.1693026 11.123451 2.1816406 11.113281 L 3.5605469 9.7324219 C 3.6584869 9.6344849 3.7862525 9.5839844 3.9140625 9.5839844 z " />
  <path
     id="path2"
     style="fill:currentColor;fill-opacity:1"
     class="ColorScheme-Text"
     d="M 5 0 C 3.8954 0 3 0.89543 3 2 L 3 6.2070312 C 3.32228 6.1158813 3.65659 6.0524344 4 6.0214844 L 4 2 C 4 1.44772 4.44787 1.01277 5 1 L 9 1 L 9 4.5 C 9 5.32843 9.6716 6 10.5 6 L 14 6 L 14 13 C 14 13.5523 13.5523 14 13 14 L 9.4003906 14 C 9.2174906 14.3578 8.9958175 14.6929 8.7421875 15 L 13 15 C 14.1046 15 15 14.1046 15 13 L 15 5.4140625 C 15 5.0162425 14.841847 4.6348156 14.560547 4.3535156 L 10.646484 0.43945312 C 10.365184 0.15815313 9.9836875 -7.4014868e-17 9.5859375 0 L 5 0 z M 10 1.2070312 L 13.792969 5 L 10.5 5 C 10.2239 5 10 4.77614 10 4.5 L 10 1.2070312 z " />
</svg>

<svg version="1.1" viewBox="0 0 16 16" xmlns="http://www.w3.org/2000/svg">
 <defs>
  <style id="current-color-scheme" type="text/css">.ColorScheme-Text {
        color:#363636;
      }</style>
 </defs>
 <path d="m4.5 7c2.4853 0 4.5 2.0147 4.5 4.5 0 2.4853-2.0147 4.5-4.5 4.5s-4.5-2.0147-4.5-4.5c0-2.4853 2.0147-4.5 4.5-4.5zm-0.58594 2.584c-0.12781 0-0.25558 0.050503-0.35352 0.14844l-1.3789 1.3809c-0.012338 0.01017-0.023859 0.02191-0.035156 0.0332-0.011297 0.0113-0.02303 0.02282-0.033203 0.03516v4e-3c-0.00543 0.0067-0.012548 0.01264-0.017578 0.01953-0.00278 0.0038-0.00514 0.0078-0.00781 0.01172-8.269e-4 0.0012-0.00114 0.0027-0.00195 0.0039-9.92e-4 0.0015-0.00293 0.0024-0.00391 0.0039-0.00784 0.0119-0.014661 0.02452-0.021484 0.03711-0.00111 2e-3 -0.00283 0.0038-0.00391 0.0059-0.00394 0.0075-0.0062 0.01568-0.00977 0.02344-0.0033 0.0072-0.0068 0.01413-0.00977 0.02148-0.011877 0.02946-0.02121 0.05983-0.027344 0.0918-0.00279 0.01452-0.0063 0.02997-0.00781 0.04492v4e-3c-0.0014449 0.015375-0.0019456 0.030676-0.0019456 0.046659 0 0.01598 4.229e-4 0.03096 0.00195 0.04687v4e-3c0.00152 0.01467 0.00499 0.03041 0.00781 0.04492 0.00613 0.03197 0.015467 0.06234 0.027344 0.0918 0.00296 0.0074 0.00647 0.01431 0.00977 0.02148 0.00123 0.0027 0.00263 0.0052 0.00391 0.0078 0.00243 5e-3 0.00326 0.01069 0.00586 0.01563 0.00109 0.0021 0.00279 0.0038 0.00391 0.0059 0.00676 0.0124 0.013597 0.02519 0.021484 0.03711 0.0054 0.0082 0.011719 0.01559 0.017578 0.02344 0.00434 0.0058 0.00905 0.01191 0.013672 0.01758 0.020611 0.02516 0.043268 0.04962 0.068359 0.07031l1.3789 1.3809c0.19587 0.19587 0.51116 0.19587 0.70703 0 0.19587-0.19587 0.19587-0.51116 0-0.70703l-0.56055-0.56067h2.793c0.277 0 0.5-0.223 0.5-0.5s-0.223-0.5-0.5-0.5h-2.793l0.56055-0.56055c0.19587-0.19587 0.19587-0.51116 0-0.70703-0.097934-0.097934-0.22571-0.14844-0.35352-0.14844z" fill="#363636"/>
 <path d="m5 0c-1.1046 0-2 0.89543-2 2v4.207c0.32228-0.09115 0.65659-0.1546 1-0.18555v-4.0215c0-0.55228 0.44787-0.98723 1-1h4v3.5c0 0.82843 0.6716 1.5 1.5 1.5h3.5v7c0 0.5523-0.4477 1-1 1h-3.5996c-0.1829 0.3578-0.40457 0.6929-0.6582 1h4.2578c1.1046 0 2-0.8954 2-2v-7.5859c0-0.39782-0.15815-0.7792-0.43945-1.0605l-3.9141-3.9141c-0.2813-0.2813-0.66275-0.43945-1.0605-0.43945zm5 1.207 3.793 3.793h-3.293c-0.2761 0-0.5-0.22386-0.5-0.5z" fill="#363636"/>
</svg>
